packages/ui-icons/src/Basic/24/Statistics_24.svg

<svg xmlns="http://www.w3.org/2000/svg" viewBox="0 0 32 32"><path d="M18 4h-1v11h11v-1A10 10 0 0 0 18 4Zm1 9V6.06A8 8 0 0 1 25.94 13Z"/><path d="M14 28a10.08 10.08 0 0 0 7.07-3.16l.72-.72A9.26 9.26 0 0 0 24 18v-1h-9V8h-1a10 10 0 0 0 0 20Zm7.94-9a7.36 7.36 0 0 1-1.63 3.68L16.48 19Zm-13.6-6.66A7.94 7.94 0 0 1 13 10.06v8.35l5.9 5.7A7.84 7.84 0 0 1 14 26a8 8 0 0 1-5.66-13.66Z"/></svg>

<svg id="Ready" xmlns="http://www.w3.org/2000/svg" viewBox="0 0 32 32"><title>Megaicons_work_24_1.8_cp</title><path d="M18,4H17V15H28V14A10,10,0,0,0,18,4Zm1,9V6.06A8,8,0,0,1,25.94,13Z"/><path d="M14,28a10.08,10.08,0,0,0,7.07-3.16l.72-.72,0,0A9.26,9.26,0,0,0,24,18V17H15V8H14a10,10,0,0,0,0,20Zm7.94-9a7.36,7.36,0,0,1-1.63,3.68L16.48,19ZM8.34,12.34A7.94,7.94,0,0,1,13,10.06v8.35l5.9,5.7A7.84,7.84,0,0,1,14,26,8,8,0,0,1,8.34,12.34Z"/></svg>
